X:1
T:Title
%%score { ( 1 3 ) | ( 2 4 ) }
L:1/8
Q:1/4=100
M:6/8
K:Bb
V:1 treble nm="Grand Piano"
V:3 treble 
V:2 bass 
V:4 bass 
V:1
 [DF]3 [_D=E]2 [=DF] | [Fd]3 [Ge]2 [Fd] | B3 D2 G | F6 | A3 G2 A | [DB]3 [DA]2 [DB] | %6
w: Adam~Geibel * *||||||
 [=Ed]3 [Ec]2 [EG] | [Ec]6 | [DF]3 [_D=E]2 [=DF] | [Fd]3 [Ge]2 [Fd] | [DB]3 [EAc]2 [F_Ad] | %11
w: |||||
 [EGe]6 | [GB]3 [GB]2 [^Fc] | [Fd]3 [Ge]2 [Fd] | d2 c [_EG]2 [EA] | [DB]6 | [Fd]3 [Gd]2 [Ad] | %17
w: ||||||
 [cd]3 [Bd]3 | [Fd]3 [Gd]2 [_Ad] | [Ae]6 | [Fe]3 [Ae]2 [Be] | [df]3 [ce]2 [Ge] | %22
w: |||||
 [Af]3- [Af]2 [Ge] | [Fd]6 | [Ff]3 .d3 | A3 G3 | [Ee]3 .c3 | G3 z3 | B3 c3 | [Fd]3 [Ff]2 [Ge] | %30
w: ||||||||
 d3 d2 c | B6- | B6- | B6 |] %34
w: ||||
V:2
 B,,D,F, B,F,D, | B,,D,F, B,F,D, | D3 z2 E | D6 | E3 E2 E | G,,B,,D, G,D,B,, | C,G,B, C,G,B, | %7
 F,,F,G, A,G,F, | B,,D,F, B,F,D, | B,,D,F, B,F,D, | B,,B,B, B,,B,B, | E,,E,G, B,G,E, | %12
 E,,E,G, B,G,E, | F,,F,B, DB,F, | [C,G,]3 [F,,F,]3 | [B,,F,]6 | B,,F,B, DB,F, | B,,F,B, DB,F, | %18
 B,,F,B, DB,F, | C,F,A, EA,F, | F,,F,A, EA,F, | F,,F,A, EA,F, | F,,F,A, EA,F, | B,,F,B, DB,F, | %24
 [D,,D,][D,F,][D,F,] [D,F,B,][D,F,][D,F,B,] | [E,,E,][E,G,][E,G,] [E,G,C][E,G,][E,G,] | %26
 [C,,C,][E,G,][E,G,] [E,G,C][E,G,][E,G,C] | [D,,D,][D,A,][D,A,] [D,A,C]2 D, | [G,B,D]3 [F,A,F]3 | %29
 [B,,B,]3 [D,B,]2 [E,B,] | [F,B,F]3 [F,A,E]3 | z3 z2 F, | G,3 ^F,3 | F,6 |] %34
V:3
 x6 | x6 | x6 | x6 | x6 | x6 | x6 | x6 | x6 | x6 | x6 | x6 | x6 | x6 | =E3 z3 | x6 | x6 | x6 | x6 | %19
 x6 | x6 | x6 | x6 | x6 | z B,B, z B,B | z CC z CC | z CC z CA | z CC ^F2 D | x6 | x6 | x6 | %31
 [B,D]3- [B,D]2 D | E3 E3 | D6 |] %34
V:4
 x6 | x6 | x6 | x6 | x6 | x6 | x6 | x6 | x6 | x6 | x6 | x6 | x6 | x6 | x6 | x6 | x6 | x6 | x6 | %19
 x6 | x6 | x6 | x6 | x6 | x6 | x6 | x6 | x6 | x6 | x6 | x6 | B,,6- | B,,6- | B,,6 |] %34

